svgs/sharp-solid/square-arrow-up-right.svg

<svg xmlns="http://www.w3.org/2000/svg" viewBox="0 0 448 512"><!--! Font Awesome Pro 6.6.0 by @fontawesome - https://fontawesome.com License - https://fontawesome.com/license (Commercial License) Copyright 2024 Fonticons, Inc. --><path d="M0 32l448 0 0 448L0 480 0 32zM312 144l-152 0-24 0 0 48 24 0 94.1 0L119 327l-17 17L136 377.9l17-17 135-135L288 328l0 24 48 0 0-24 0-160 0-24-24 0z"/></svg>

<svg xmlns="http://www.w3.org/2000/svg" viewBox="0 0 448 512"><!--! Font Awesome Pro 6.4.0 by @fontawesome - https://fontawesome.com License - https://fontawesome.com/license (Commercial License) Copyright 2023 Fonticons, Inc. --><path d="M0 32H448V480H0V32zM312 144H160 136v48h24 94.1L119 327l-17 17L136 377.9l17-17 135-135V328v24h48V328 168 144H312z"/></svg>
